icons/wechat-2-line.svg

<svg xmlns="http://www.w3.org/2000/svg" width="24" height="24" fill="none"><g clip-path="url(#a)"><g><path fill="#121212" d="M8.66661 11.511C8.49753 11.5121 8.32989 11.4797 8.17345 11.4156C8.017 11.3514 7.87487 11.2568 7.75531 11.1373C7.63575 11.0177 7.54114 10.8756 7.47699 10.7191C7.41283 10.5627 7.38041 10.395 7.38161 10.226C7.38161 9.50795 7.94861 8.93995 8.66661 8.93995C9.38361 8.93995 9.95161 9.50795 9.95161 10.226C9.95161 10.943 9.38361 11.511 8.66661 11.511ZM15.3326 11.511C15.1635 11.5121 14.9959 11.4797 14.8394 11.4156C14.683 11.3514 14.5409 11.2568 14.4213 11.1373C14.3017 11.0177 14.2071 10.8756 14.143 10.7191C14.0788 10.5627 14.0464 10.395 14.0476 10.226C14.0476 9.50795 14.6156 8.93995 15.3326 8.93995C16.0506 8.93995 16.6176 9.50795 16.6176 10.226C16.6176 10.943 16.0506 11.511 15.3326 11.511ZM6.82261 19.215L7.53761 18.779C8.34724 18.2853 9.30591 18.0953 10.2426 18.243C10.4546 18.276 10.6286 18.302 10.7626 18.319C11.1686 18.373 11.5826 18.4 11.9996 18.4C16.4196 18.4 19.8996 15.378 19.8996 11.8C19.8996 8.22195 16.4196 5.19995 11.9996 5.19995C7.57961 5.19995 4.09961 8.22195 4.09961 11.8C4.09961 13.166 4.59961 14.473 5.53161 15.581C5.57961 15.638 5.65161 15.718 5.74561 15.816C6.13868 16.2253 6.44015 16.7136 6.62997 17.2485C6.8198 17.7833 6.89365 18.3524 6.84661 18.918L6.82161 19.215H6.82261ZM6.19261 21.9419C6.03532 22.0404 5.85376 22.0931 5.66823 22.0942C5.4827 22.0953 5.30052 22.0448 5.14206 21.9483C4.9836 21.8518 4.85512 21.7131 4.77098 21.5477C4.68683 21.3824 4.65035 21.1969 4.66561 21.0119L4.85361 18.752C4.87719 18.4692 4.84035 18.1847 4.74552 17.9173C4.6507 17.6498 4.50006 17.4057 4.30361 17.201C4.19872 17.0932 4.09734 16.9822 3.99961 16.868C2.80561 15.447 2.09961 13.695 2.09961 11.8C2.09961 7.04995 6.53161 3.19995 11.9996 3.19995C17.4676 3.19995 21.8996 7.04995 21.8996 11.8C21.8996 16.55 17.4676 20.4 11.9996 20.4C11.4896 20.4 10.9896 20.367 10.5006 20.302C10.3106 20.2763 10.1209 20.2483 9.93161 20.218C9.4631 20.144 8.98356 20.239 8.57861 20.486L6.19161 21.9419H6.19261Z"/></g></g><defs><clipPath id="a"><rect width="24" height="24" fill="white"/></clipPath></defs></svg>

<svg width="24" height="24" fill="none" xmlns="http://www.w3.org/2000/svg"><g clip-path="url(#a)"><path d="M8.667 11.511a1.279 1.279 0 0 1-1.285-1.285c0-.718.567-1.286 1.285-1.286.717 0 1.285.568 1.285 1.286 0 .717-.568 1.285-1.285 1.285Zm6.666 0a1.28 1.28 0 0 1-1.19-.792 1.275 1.275 0 0 1-.095-.493c0-.718.568-1.286 1.285-1.286.718 0 1.285.568 1.285 1.286 0 .717-.567 1.285-1.285 1.285Zm-8.51 7.704.715-.436a4 4 0 0 1 2.705-.536c.212.033.386.059.52.076.406.054.82.081 1.237.081 4.42 0 7.9-3.022 7.9-6.6S16.42 5.2 12 5.2s-7.9 3.022-7.9 6.6c0 1.366.5 2.673 1.432 3.781.048.057.12.137.214.235a3.999 3.999 0 0 1 1.1 3.102l-.024.297Zm-.63 2.727a1 1 0 0 1-1.527-.93l.188-2.26a2 2 0 0 0-.55-1.551A7.059 7.059 0 0 1 4 16.868c-1.194-1.421-1.9-3.173-1.9-5.068 0-4.75 4.432-8.6 9.9-8.6s9.9 3.85 9.9 8.6-4.432 8.6-9.9 8.6c-.51 0-1.01-.033-1.5-.098a25.86 25.86 0 0 1-.568-.084 2 2 0 0 0-1.353.268l-2.387 1.456Z" /></g><defs><clipPath id="a"><path fill="#fff" d="M0 0h24v24H0z"/></clipPath></defs></svg>
